X:1038
T:Ratha Fair.
M:C
L:1/8
Q:1/2=100
I: :: ::
Z:Jack Campin * www.campin.me.uk * 2009
K:E Minor
d|B>eed  B>GdB|B>eef    gefd|B>eed  B>cdB |B<ed>B A2A:|
B|G<EE>G D>EBD|E/E/E Ed edBA|G<EE>G D>EG>A|B<ed>B A2A:|
<end>
<start>
